X: 476
T: Bûselik Sazsemâîsi
C: Mutlu Torun
O: Turkey
F: http://compmusic.upf.edu/node/140
N: buselik--sazsemaisi--aksaksemai----mutlu_torun
N: makam= buselik
N: form= sazsemaisi
N: usul= aksaksemai = 10/8
M: 10/8
L: 1/16
K: C    
Q: 1/4=156
%%MIDI tuningsystem comma53
G4 c/B/ce4dc/B/ cag{a}g fedc  | BcdB cde3/2d/ c2d3/2c/ B2c3/2B/ AeAA  | 
w:  1. HANE  |   | 
_7/8e{^f}e{f}ed c2g3/2f/ g2a3/2g/ a2z=f =edcB  | \
w:   | 
ABcA Bcdc Bfed gfe2 dcBA  | 
w:   | 
G4 c/B/ce4dc/B/ cag{a}g fedc  | BcdB cde3/2d/ c2d3/2c/ B2c3/2B/ AeAA  | 
w:  1. HANE  |   | 
_7/8e{^f}e{f}ed c2g3/2f/ g2a3/2g/ a2z=f =edcB  | \
w:   | 
ABcA Bcdc Bfed gfe6  | 
w:   | 
A4 B/A/BG3de{f}e {f}eAa{b}a gfed  | \
w:  TESLİM  | 
cBAc BA{d}e3dg{a}g ^fed_b agfe  | 
w:   | 
dc/B/cd cB.A2 e/d/e.d2 g/^f/ggd cBAG  | 
w:   | 
defB cd^GA BEed feA6  | e4 a/^g/ag4fe/^d/ efe{f}e dcd{e}d  | 
w:   |  2. HANE  | 
ecBc Ae^d4f{^g}f {g}fee4c/B/A  | e4 c/B/cd4{a}gf edcB Ae^dc  | 
w:   |   | 
BEFE BA^G3EF{=G}F {G}FEE6  | e4 a/^g/ag4fe/^d/ efe{f}e dcd{e}d  | 
w:   |  2. HANE  | 
ecBc Ae^d4f{^g}f {g}fee4c/B/A  | e4 c/B/cd4{a}gf edcB Ae^dc  | 
w:   |   | 
BEFE BA^G3EF{=G}F {G}FEG2 e2c2  | \
w:   | 
A4 B/A/BG3de{f}e {f}eAa{b}a gfed  | 
w:  TESLİM  | 
cBAc BA{d}e3dg{a}g ^fed_b agfe  | \
w:   | 
dc/B/cd cB.A2 e/d/e.d2 g/^f/ggd cBAG  | 
w:   | 
defB cd^GA BEed feA6  | a4 {b}^gab4d'{e'}d' ^c'ba6  | 
w:   |  3. HANE  | 
{b}ag{a}g^f {g}fee3/2d/ ^c2d3/2c/ B2dc/B/ cdcB  | \
w:   | 
c{^d}c{d}cB A2e3/2d/ e2f3/2e/ f2ze dcBA  | 
w:   | 
GcBc dBcB Afed gfe6  | a4 {b}^gab4d'{e'}d' ^c'ba6  | 
w:   |  3. HANE  | 
{b}ag{a}g^f {g}fee3/2d/ ^c2d3/2c/ B2dc/B/ cdcB  | \
w:   | 
c{^d}c{d}cB A2e3/2d/ e2f3/2e/ f2ze dcBA  | 
w:   | 
GcBc dBcB Afed gfe6  | A4 B/A/BG3de{f}e {f}eAa{b}a gfed  | 
w:   |  TESLİM  | 
cBAc BA{d}e3dg{a}g ^fed_b agfe  | \
w:   | 
dc/B/cd cB.A2 e/d/e.d2 g/^f/ggd cBAG  | 
w:   | 
defB cd^GA BEed feA6  | |


